icons/bootstrap/bootstrap-original-wordmark.svg

<svg width="128" height="128" viewBox="0 0 128 128" xmlns="http://www.w3.org/2000/svg">
<path d="M14.985 15.15C14.748 8.33502 20.057 2.05103 27.234 2.05103H100.774C107.951 2.05103 113.26 8.33502 113.023 15.15C112.795 21.696 113.091 30.176 115.225 37.09C117.366 44.026 120.976 48.409 126.889 48.973V55.36C120.976 55.923 117.366 60.307 115.225 67.243C113.091 74.157 112.795 82.637 113.023 89.183C113.26 95.998 107.951 102.281 100.774 102.281H27.234C20.057 102.281 14.748 95.997 14.985 89.183C15.213 82.637 14.917 74.157 12.782 67.243C10.642 60.308 7.02201 55.924 1.10901 55.36V48.973C7.02201 48.41 10.642 44.026 12.782 37.09C14.917 30.176 15.212 21.696 14.985 15.15V15.15Z" fill="url(#paint0_linear_2_2)"/>
<g filter="url(#filter0_d_2_2)">
<path d="M67.1098 79.1742C78.7288 79.1742 85.7303 73.4853 85.7303 64.1018C85.7303 57.0088 80.7346 51.8738 73.3166 51.0609V50.7654C78.7666 49.8788 83.0433 44.8177 83.0433 39.1656C83.0433 31.1121 76.6851 25.866 66.9963 25.866H45.1964V79.1742H67.1098ZM53.6741 32.6266H64.9526C71.0838 32.6266 74.5656 35.3603 74.5656 40.3106C74.5656 45.5935 70.5161 48.5488 63.1738 48.5488H53.6741V32.6266ZM53.6741 72.4137V54.8659H64.8767C72.9002 54.8659 77.0634 57.8212 77.0634 63.5844C77.0634 69.3474 73.014 72.4137 65.3688 72.4137H53.6741Z" fill="url(#paint1_linear_2_2)"/>
<path d="M67.1098 79.1742C78.7288 79.1742 85.7303 73.4853 85.7303 64.1018C85.7303 57.0088 80.7346 51.8738 73.3166 51.0609V50.7654C78.7666 49.8788 83.0433 44.8177 83.0433 39.1656C83.0433 31.1121 76.6851 25.866 66.9963 25.866H45.1964V79.1742H67.1098ZM53.6741 32.6266H64.9526C71.0838 32.6266 74.5656 35.3603 74.5656 40.3106C74.5656 45.5935 70.5161 48.5488 63.1738 48.5488H53.6741V32.6266ZM53.6741 72.4137V54.8659H64.8767C72.9002 54.8659 77.0634 57.8212 77.0634 63.5844C77.0634 69.3474 73.014 72.4137 65.3688 72.4137H53.6741Z" fill="none" stroke="white" stroke-width="0.24566"/>
</g>
<path d="M11.3979 121.43V103.692H16.4449C17.9783 103.692 19.1946 104.067 20.0939 104.818C20.9926 105.568 21.4419 106.545 21.4419 107.749C21.4419 108.756 21.1699 109.63 20.6259 110.372C20.0813 111.114 19.3306 111.642 18.374 111.955V112.005C19.5699 112.145 20.5266 112.598 21.2439 113.365C21.9613 114.124 22.3199 115.113 22.3199 116.334C22.3199 117.851 21.7759 119.08 20.6879 120.02C19.5993 120.96 18.226 121.43 16.568 121.43H11.3979ZM13.4759 105.572V111.299H15.6039C16.7419 111.299 17.6366 111.027 18.2879 110.483C18.9393 109.93 19.2649 109.154 19.2649 108.157C19.2649 106.434 18.1309 105.572 15.8629 105.572H13.4759ZM13.4759 113.167V119.55H16.2959C17.5166 119.55 18.4609 119.261 19.1289 118.684C19.8049 118.107 20.1429 117.315 20.1429 116.309C20.1429 114.214 18.7163 113.167 15.8629 113.167H13.4759ZM30.9419 121.73C29.0699 121.73 27.5733 121.14 26.4519 119.961C25.3386 118.774 24.7819 117.203 24.7819 115.248C24.7819 113.121 25.3633 111.459 26.5259 110.263C27.6886 109.068 29.2596 108.47 31.2389 108.47C33.1269 108.47 34.5989 109.051 35.6549 110.214C36.7183 111.377 37.25 112.989 37.25 115.05C37.25 117.071 36.6769 118.691 35.5309 119.912C34.3929 121.124 32.8633 121.73 30.9419 121.73V121.73ZM31.09 110.177C29.7873 110.177 28.7566 110.622 27.9979 111.513C27.2393 112.395 26.86 113.615 26.86 115.174C26.86 116.675 27.2433 117.859 28.0099 118.724C28.7766 119.591 29.8033 120.024 31.09 120.024C32.4013 120.024 33.4076 119.599 34.109 118.749C34.8176 117.9 35.172 116.692 35.172 115.125C35.172 113.542 34.8176 112.321 34.109 111.463C33.4076 110.606 32.4013 110.177 31.09 110.177V110.177ZM45.7859 121.73C43.9139 121.73 42.4173 121.14 41.296 119.961C40.1826 118.774 39.6259 117.203 39.6259 115.248C39.6259 113.121 40.2073 111.459 41.3699 110.263C42.5326 109.068 44.1036 108.47 46.083 108.47C47.971 108.47 49.443 109.051 50.499 110.214C51.563 111.377 52.095 112.989 52.095 115.05C52.095 117.071 51.5216 118.691 50.375 119.912C49.237 121.124 47.7073 121.73 45.7859 121.73V121.73ZM45.9339 110.177C44.6313 110.177 43.6006 110.622 42.8419 111.513C42.0833 112.395 41.7039 113.615 41.7039 115.174C41.7039 116.675 42.0873 117.859 42.854 118.724C43.6206 119.591 44.6473 120.024 45.9339 120.024C47.2453 120.024 48.2516 119.599 48.9529 118.749C49.6616 117.9 50.0159 116.692 50.0159 115.125C50.0159 113.542 49.6616 112.321 48.9529 111.463C48.2516 110.606 47.2453 110.177 45.9339 110.177V110.177ZM61.2109 121.31C60.7329 121.574 60.102 121.706 59.318 121.706C57.1 121.706 55.991 120.469 55.991 117.995V110.499H53.8139V108.767H55.991V105.675L58.02 105.019V108.767H61.2109V110.499H58.02V117.636C58.02 118.485 58.1643 119.092 58.4529 119.455C58.7409 119.818 59.219 119.999 59.887 119.999C60.3983 119.999 60.8396 119.859 61.2109 119.579V121.31ZM63.153 120.97V118.793C64.2576 119.609 65.474 120.017 66.802 120.017C68.5833 120.017 69.4739 119.424 69.4739 118.237C69.4739 117.898 69.3956 117.614 69.2389 117.383C69.0903 117.144 68.884 116.933 68.62 116.752C68.3646 116.571 68.0596 116.41 67.705 116.27C67.3583 116.121 66.983 115.969 66.579 115.812C66.019 115.589 65.5243 115.367 65.095 115.144C64.675 114.913 64.3203 114.658 64.0309 114.377C63.7509 114.088 63.5366 113.763 63.388 113.4C63.248 113.037 63.178 112.613 63.178 112.126C63.178 111.533 63.3139 111.009 63.5859 110.555C63.8579 110.093 64.2206 109.71 64.674 109.405C65.1273 109.092 65.643 108.856 66.221 108.699C66.8063 108.542 67.4083 108.464 68.027 108.464C69.1236 108.464 70.105 108.654 70.971 109.034V111.087C70.039 110.476 68.9666 110.171 67.7539 110.171C67.3746 110.171 67.0326 110.216 66.7279 110.307C66.4226 110.39 66.1586 110.51 65.9359 110.667C65.7213 110.823 65.5523 111.012 65.429 111.235C65.3136 111.45 65.2559 111.689 65.2559 111.953C65.2559 112.282 65.3136 112.558 65.429 112.781C65.5523 113.004 65.7296 113.202 65.9609 113.375C66.1916 113.548 66.472 113.705 66.802 113.845C67.132 113.985 67.5073 114.138 67.928 114.303C68.488 114.517 68.9909 114.74 69.4369 114.971C69.8823 115.194 70.2616 115.449 70.5749 115.738C70.8883 116.018 71.1273 116.344 71.292 116.715C71.4653 117.086 71.552 117.527 71.552 118.038C71.552 118.665 71.412 119.209 71.132 119.671C70.8593 120.133 70.4919 120.516 70.0299 120.821C69.5686 121.126 69.0369 121.353 68.4349 121.502C67.8329 121.651 67.202 121.725 66.542 121.725C65.2393 121.725 64.1093 121.473 63.152 120.97H63.153ZM80.5439 121.31C80.0659 121.574 79.4349 121.706 78.6509 121.706C76.4329 121.706 75.3239 120.469 75.3239 117.995V110.499H73.147V108.767H75.3239V105.675L77.3529 105.019V108.767H80.5439V110.499H77.3529V117.636C77.3529 118.485 77.4973 119.092 77.7859 119.455C78.0739 119.818 78.5519 119.999 79.2199 119.999C79.7313 119.999 80.1726 119.859 80.5439 119.579V121.31ZM89.8589 110.82C89.5043 110.548 88.9929 110.412 88.3249 110.412C87.4589 110.412 86.7333 110.82 86.1479 111.636C85.5706 112.453 85.2819 113.566 85.2819 114.976V121.433H83.2539V108.767H85.2819V111.377H85.3319C85.6206 110.486 86.0616 109.794 86.6549 109.299C87.2483 108.796 87.9123 108.544 88.6469 108.544C89.1743 108.544 89.5783 108.602 89.8589 108.718V110.82ZM101.13 121.43H99.1009V119.45H99.0509C98.1689 120.968 96.8706 121.727 95.1559 121.727C93.8939 121.727 92.9039 121.393 92.1859 120.725C91.4773 120.057 91.1229 119.17 91.1229 118.065C91.1229 115.698 92.5163 114.322 95.3029 113.935L99.1009 113.402C99.1009 111.25 98.2309 110.174 96.4909 110.174C94.9656 110.174 93.5886 110.693 92.3599 111.732V109.654C93.6053 108.863 95.0403 108.467 96.6649 108.467C99.6416 108.467 101.13 110.042 101.13 113.192V121.43ZM99.1009 115.023L96.0459 115.443C95.1059 115.575 94.3966 115.81 93.9179 116.148C93.4399 116.478 93.2009 117.068 93.2009 117.917C93.2009 118.536 93.4196 119.043 93.8569 119.439C94.3023 119.826 94.8919 120.019 95.6259 120.019C96.6319 120.019 97.4606 119.669 98.1119 118.969C98.7719 118.26 99.1019 117.365 99.1019 116.284L99.1009 115.023ZM107.03 119.6H106.98V127.257H104.952V108.764H106.981V110.99H107.03C108.028 109.308 109.488 108.467 111.409 108.467C113.042 108.467 114.316 109.036 115.231 110.174C116.146 111.303 116.604 112.821 116.604 114.726C116.604 116.845 116.089 118.544 115.058 119.822C114.027 121.092 112.617 121.727 110.828 121.727C109.187 121.727 107.921 121.018 107.03 119.599V119.6ZM106.98 114.491V116.261C106.98 117.308 107.318 118.198 107.995 118.932C108.68 119.658 109.545 120.021 110.592 120.021C111.821 120.021 112.782 119.551 113.475 118.611C114.175 117.671 114.525 116.364 114.525 114.689C114.525 113.279 114.2 112.174 113.549 111.374C112.898 110.574 112.015 110.174 110.902 110.174C109.722 110.174 108.774 110.586 108.057 111.411C107.339 112.228 106.98 113.254 106.98 114.491V114.491Z" fill="#7952B3"/>
<defs>
<filter id="filter0_d_2_2" x="41.143" y="22.7953" width="48.6407" height="61.415" filterUnits="userSpaceOnUse" color-interpolation-filters="sRGB">
<feFlood flood-opacity="0" result="BackgroundImageFix"/>
<feColorMatrix in="SourceAlpha" type="matrix" values="0 0 0 0 0 0 0 0 0 0 0 0 0 0 0 0 0 0 127 0" result="hardAlpha"/>
<feOffset dy="0.98264"/>
<feGaussianBlur stdDeviation="1.96528"/>
<feColorMatrix type="matrix" values="0 0 0 0 0 0 0 0 0 0 0 0 0 0 0 0 0 0 0.15 0"/>
<feBlend mode="normal" in2="BackgroundImageFix" result="effect1_dropShadow_2_2"/>
<feBlend mode="normal" in="SourceGraphic" in2="effect1_dropShadow_2_2" result="shape"/>
</filter>
<linearGradient id="paint0_linear_2_2" x1="19.7996" y1="4.70366" x2="129.708" y2="91.9503" gradientUnits="userSpaceOnUse">
<stop stop-color="#9013FE"/>
<stop offset="1" stop-color="#6610F2"/>
</linearGradient>
<linearGradient id="paint1_linear_2_2" x1="49.0317" y1="29.3741" x2="73.5977" y2="70.9225" gradientUnits="userSpaceOnUse">
<stop stop-color="white"/>
<stop offset="1" stop-color="#F1E5FC"/>
</linearGradient>
</defs>
</svg>

<svg xmlns="http://www.w3.org/2000/svg" viewBox="0 0 128 128"><path fill="url(#a)" d="M14.985 15.15c-.237-6.815 5.072-13.099 12.249-13.099h73.54c7.177 0 12.486 6.284 12.249 13.099-.228 6.546.068 15.026 2.202 21.94 2.141 6.936 5.751 11.319 11.664 11.883v6.387c-5.913.563-9.523 4.947-11.664 11.883-2.134 6.914-2.43 15.394-2.202 21.94.237 6.815-5.072 13.098-12.249 13.098h-73.54c-7.177 0-12.486-6.284-12.249-13.098.228-6.546-.068-15.026-2.203-21.94-2.14-6.935-5.76-11.319-11.673-11.883v-6.387c5.913-.563 9.533-4.947 11.673-11.883 2.135-6.914 2.43-15.394 2.203-21.94Z"/><g filter="url(#b)"><path fill="url(#c)" d="M67.11 79.174c11.619 0 18.62-5.689 18.62-15.072 0-7.093-4.995-12.228-12.413-13.041v-.296c5.45-.886 9.726-5.947 9.726-11.6 0-8.053-6.358-13.299-16.047-13.299h-21.8v53.308H67.11ZM53.674 32.627h11.279c6.13 0 9.613 2.733 9.613 7.684 0 5.282-4.05 8.238-11.392 8.238h-9.5V32.627Zm0 39.787V54.866h11.203c8.023 0 12.186 2.955 12.186 8.718s-4.049 8.83-11.694 8.83H53.674Z"/><path fill="#fff" d="M67.11 79.174c11.619 0 18.62-5.689 18.62-15.072 0-7.093-4.995-12.228-12.413-13.041v-.296c5.45-.886 9.726-5.947 9.726-11.6 0-8.053-6.358-13.299-16.047-13.299h-21.8v53.308H67.11ZM53.674 32.627h11.279c6.13 0 9.613 2.733 9.613 7.684 0 5.282-4.05 8.238-11.392 8.238h-9.5V32.627Zm0 39.787V54.866h11.203c8.023 0 12.186 2.955 12.186 8.718s-4.049 8.83-11.694 8.83H53.674Z"/></g><path fill="#7952B3" d="M11.398 121.43v-17.738h5.047c1.533 0 2.75.375 3.649 1.126.899.75 1.348 1.727 1.348 2.931 0 1.007-.272 1.881-.816 2.623-.545.742-1.295 1.27-2.252 1.583v.05c1.196.14 2.153.593 2.87 1.36.717.759 1.076 1.748 1.076 2.969 0 1.517-.544 2.746-1.632 3.686-1.089.94-2.462 1.41-4.12 1.41h-5.17Zm2.078-15.858v5.727h2.128c1.138 0 2.033-.272 2.684-.816.651-.553.977-1.329.977-2.326 0-1.723-1.134-2.585-3.402-2.585h-2.387Zm0 7.595v6.383h2.82c1.22 0 2.165-.289 2.833-.866.676-.577 1.014-1.369 1.014-2.375 0-2.095-1.427-3.142-4.28-3.142h-2.387Zm17.466 8.563c-1.872 0-3.369-.59-4.49-1.769-1.113-1.187-1.67-2.758-1.67-4.713 0-2.127.581-3.789 1.744-4.985 1.163-1.195 2.734-1.793 4.713-1.793 1.888 0 3.36.581 4.416 1.744 1.063 1.163 1.595 2.775 1.595 4.836 0 2.021-.573 3.641-1.72 4.862-1.137 1.212-2.667 1.818-4.588 1.818Zm.148-11.553c-1.303 0-2.333.445-3.092 1.336-.759.882-1.138 2.102-1.138 3.661 0 1.501.383 2.685 1.15 3.55.767.867 1.793 1.3 3.08 1.3 1.311 0 2.318-.425 3.019-1.275.709-.849 1.063-2.057 1.063-3.624 0-1.583-.354-2.804-1.063-3.662-.701-.857-1.708-1.286-3.019-1.286Zm14.696 11.553c-1.872 0-3.369-.59-4.49-1.769-1.113-1.187-1.67-2.758-1.67-4.713 0-2.127.581-3.789 1.744-4.985 1.163-1.195 2.734-1.793 4.713-1.793 1.888 0 3.36.581 4.416 1.744 1.064 1.163 1.596 2.775 1.596 4.836 0 2.021-.573 3.641-1.72 4.862-1.138 1.212-2.668 1.818-4.59 1.818Zm.148-11.553c-1.303 0-2.333.445-3.092 1.336-.759.882-1.138 2.102-1.138 3.661 0 1.501.383 2.685 1.15 3.55.767.867 1.793 1.3 3.08 1.3 1.311 0 2.318-.425 3.019-1.275.709-.849 1.063-2.057 1.063-3.624 0-1.583-.354-2.804-1.063-3.662-.701-.857-1.708-1.286-3.02-1.286ZM61.21 121.31c-.478.264-1.109.396-1.893.396-2.218 0-3.327-1.237-3.327-3.711v-7.496h-2.177v-1.732h2.177v-3.092l2.029-.656v3.748h3.19v1.732h-3.19v7.137c0 .849.144 1.456.433 1.819.288.363.766.544 1.434.544.511 0 .953-.14 1.324-.42v1.731Zm1.942-.34v-2.177c1.105.816 2.321 1.224 3.649 1.224 1.781 0 2.672-.593 2.672-1.78 0-.339-.078-.623-.235-.854a2.138 2.138 0 0 0-.619-.631 4.326 4.326 0 0 0-.915-.482 34.7 34.7 0 0 0-1.126-.458 16.416 16.416 0 0 1-1.484-.668 4.918 4.918 0 0 1-1.064-.767 3.059 3.059 0 0 1-.643-.977c-.14-.363-.21-.787-.21-1.274 0-.593.136-1.117.408-1.571a3.53 3.53 0 0 1 1.088-1.15 5.01 5.01 0 0 1 1.547-.706 6.94 6.94 0 0 1 1.806-.235c1.097 0 2.078.19 2.944.57v2.053c-.932-.611-2.004-.916-3.217-.916-.38 0-.721.045-1.026.136a2.5 2.5 0 0 0-.792.36 1.735 1.735 0 0 0-.507.568 1.493 1.493 0 0 0-.173.718c0 .329.058.605.173.828.123.223.3.421.532.594.23.173.511.33.841.47.33.14.705.293 1.126.458.56.214 1.063.437 1.509.668a4.9 4.9 0 0 1 1.138.767c.313.28.552.606.717.977.173.371.26.812.26 1.323 0 .627-.14 1.171-.42 1.633-.273.462-.64.845-1.102 1.15a5.078 5.078 0 0 1-1.595.681 7.852 7.852 0 0 1-1.893.223c-1.303 0-2.433-.252-3.39-.755h.001Zm17.39.34c-.477.264-1.108.396-1.892.396-2.218 0-3.327-1.237-3.327-3.711v-7.496h-2.177v-1.732h2.177v-3.092l2.029-.656v3.748h3.19v1.732h-3.19v7.137c0 .849.144 1.456.433 1.819.288.363.766.544 1.434.544.511 0 .953-.14 1.324-.42v1.731Zm9.316-10.49c-.355-.272-.866-.408-1.534-.408-.866 0-1.592.408-2.177 1.224-.577.817-.866 1.93-.866 3.34v6.457h-2.028v-12.666h2.028v2.61h.05c.289-.891.73-1.583 1.323-2.078.593-.503 1.257-.755 1.992-.755.527 0 .931.058 1.212.174v2.102Zm11.271 10.61H99.1v-1.98h-.05c-.881 1.518-2.18 2.277-3.894 2.277-1.262 0-2.252-.334-2.97-1.002-.709-.668-1.063-1.555-1.063-2.66 0-2.367 1.393-3.743 4.18-4.13l3.798-.533c0-2.152-.87-3.228-2.61-3.228-1.525 0-2.902.519-4.131 1.558v-2.078c1.245-.791 2.68-1.187 4.305-1.187 2.977 0 4.465 1.575 4.465 4.725v8.238Zm-2.03-6.407-3.054.42c-.94.132-1.65.367-2.128.705-.478.33-.717.92-.717 1.769 0 .619.219 1.126.656 1.522.445.387 1.035.58 1.769.58 1.006 0 1.835-.35 2.486-1.05.66-.709.99-1.604.99-2.685l-.001-1.261Zm7.93 4.577h-.05v7.657h-2.028v-18.493h2.029v2.226h.049c.998-1.682 2.458-2.523 4.379-2.523 1.633 0 2.907.569 3.822 1.707.915 1.129 1.373 2.647 1.373 4.552 0 2.119-.515 3.818-1.546 5.096-1.031 1.27-2.441 1.905-4.23 1.905-1.641 0-2.907-.709-3.798-2.128v.001Zm-.05-5.109v1.77c0 1.047.338 1.937 1.015 2.671.685.726 1.55 1.089 2.597 1.089 1.229 0 2.19-.47 2.883-1.41.7-.94 1.05-2.247 1.05-3.922 0-1.41-.325-2.515-.976-3.315-.651-.8-1.534-1.2-2.647-1.2-1.18 0-2.128.412-2.845 1.237-.718.817-1.077 1.843-1.077 3.08Z"/><defs><linearGradient id="a" x1="19.8" x2="129.708" y1="4.704" y2="91.95" gradientUnits="userSpaceOnUse"><stop stop-color="#9013FE"/><stop offset="1" stop-color="#6610F2"/></linearGradient><linearGradient id="c" x1="49.032" x2="73.598" y1="29.374" y2="70.922" gradientUnits="userSpaceOnUse"><stop stop-color="#fff"/><stop offset="1" stop-color="#F1E5FC"/></linearGradient><filter id="b" width="48.641" height="61.415" x="41.143" y="22.795" color-interpolation-filters="sRGB" filterUnits="userSpaceOnUse"><feFlood flood-opacity="0" result="BackgroundImageFix"/><feColorMatrix in="SourceAlpha" result="hardAlpha" values="0 0 0 0 0 0 0 0 0 0 0 0 0 0 0 0 0 0 127 0"/><feOffset dy=".983"/><feGaussianBlur stdDeviation="1.965"/><feColorMatrix values="0 0 0 0 0 0 0 0 0 0 0 0 0 0 0 0 0 0 0.15 0"/><feBlend in2="BackgroundImageFix" result="effect1_dropShadow_2_2"/><feBlend in="SourceGraphic" in2="effect1_dropShadow_2_2" result="shape"/></filter></defs></svg>
